tools/download-figma-icons/icons/outlined-medium/solar-plant.svg

<svg width="24" height="24" viewBox="0 0 24 24" fill="none" xmlns="http://www.w3.org/2000/svg">
<path fill-rule="evenodd" clip-rule="evenodd" d="M12.2337 3C12.6484 3 12.9837 2.66475 12.9837 2.25V0.75C12.9837 0.33525 12.6484 0 12.2337 0C11.8189 0 11.4837 0.33525 11.4837 0.75V2.25C11.4837 2.66475 11.8189 3 12.2337 3ZM13.697 6.65176C13.697 5.84476 13.0407 5.18851 12.2337 5.18851C11.4267 5.18851 10.7705 5.84476 10.7705 6.65176C10.7705 7.45801 11.4267 8.11426 12.2337 8.11426C13.0407 8.11426 13.697 7.45801 13.697 6.65176ZM15.197 6.65176C15.197 8.28526 13.868 9.61426 12.2337 9.61426C10.5995 9.61426 9.27046 8.28526 9.27046 6.65176C9.27046 5.01751 10.5995 3.68851 12.2337 3.68851C13.868 3.68851 15.197 5.01751 15.197 6.65176ZM15.466 19.7587L15.7075 22.5H19.756L19.0713 19.7587H15.466ZM8.87953 19.7587H5.39578L4.71103 22.5H8.63728L8.87953 19.7587ZM9.25379 15.516H6.45629L5.77079 18.2587H9.01154L9.25379 15.516ZM14.2015 22.5L13.96 19.7587H10.3848L10.1433 22.5H14.2015ZM10.7591 15.516L10.5176 18.2587H13.8281L13.5866 15.516H10.7591ZM15.3341 18.2587H18.6963L18.0108 15.516H15.0926L15.3341 18.2587ZM19.3233 14.5845L21.4443 23.0685C21.5013 23.2927 21.4503 23.5297 21.3085 23.7112C21.166 23.8935 20.9478 24 20.7175 24H3.7503C3.5193 24 3.30105 23.8935 3.1593 23.7112C3.0168 23.5297 2.96655 23.2927 3.0228 23.0685L5.1438 14.5845C5.22705 14.2507 5.52705 14.016 5.8713 14.016H18.5965C18.9408 14.016 19.24 14.2507 19.3233 14.5845ZM9.12083 4.2891C8.92883 4.2891 8.73683 4.2156 8.59058 4.06935L7.53008 3.00885C7.23683 2.7156 7.23683 2.24085 7.53008 1.94835C7.82333 1.6551 8.29733 1.6551 8.59058 1.94835L9.65108 3.00885C9.94433 3.3021 9.94433 3.7761 9.65108 4.06935C9.50483 4.2156 9.31283 4.2891 9.12083 4.2891ZM6.3318 7.40182H7.8318C8.24655 7.40182 8.5818 7.06657 8.5818 6.65182C8.5818 6.23707 8.24655 5.90181 7.8318 5.90181H6.3318C5.91705 5.90181 5.5818 6.23707 5.5818 6.65182C5.5818 7.06657 5.91705 7.40182 6.3318 7.40182ZM7.53008 10.2941L8.59058 9.23363C8.88383 8.94038 9.35783 8.94038 9.65108 9.23363C9.94433 9.52688 9.94433 10.0009 9.65108 10.2941L8.59058 11.3546C8.44433 11.5009 8.25233 11.5744 8.06033 11.5744C7.86833 11.5744 7.67633 11.5009 7.53008 11.3546C7.23683 11.0621 7.23683 10.5874 7.53008 10.2941ZM11.4837 11.053V12.553C11.4837 12.9677 11.8189 13.303 12.2337 13.303C12.6484 13.303 12.9837 12.9677 12.9837 12.553V11.053C12.9837 10.6382 12.6484 10.303 12.2337 10.303C11.8189 10.303 11.4837 10.6382 11.4837 11.053ZM14.8155 10.2941C14.5222 10.0016 14.5222 9.52688 14.8155 9.23363C15.1087 8.94038 15.5827 8.94038 15.876 9.23363L16.9372 10.2941C17.2305 10.5866 17.2305 11.0621 16.9372 11.3546C16.791 11.5009 16.599 11.5744 16.407 11.5744C16.215 11.5744 16.023 11.5009 15.8767 11.3546L14.8155 10.2941ZM15.8855 6.65182C15.8855 7.06657 16.2208 7.40182 16.6355 7.40182H18.1355C18.5503 7.40182 18.8855 7.06657 18.8855 6.65182C18.8855 6.23707 18.5503 5.90181 18.1355 5.90181H16.6355C16.2208 5.90181 15.8855 6.23707 15.8855 6.65182ZM15.876 4.06928C15.7297 4.21553 15.5377 4.28903 15.3457 4.28903C15.1537 4.28903 14.9617 4.21553 14.8155 4.06928C14.5222 3.77603 14.5222 3.30128 14.8155 3.00878L15.8767 1.94828C16.17 1.65503 16.644 1.65503 16.9372 1.94828C17.2305 2.24153 17.2305 2.71628 16.9372 3.00878L15.876 4.06928Z" fill="black"/>
</svg>

<svg width="24" height="24" viewBox="0 0 24 24" fill="none" xmlns="http://www.w3.org/2000/svg"><path fill-rule="evenodd" clip-rule="evenodd" d="M12.234 3a.75.75 0 0 0 .75-.75V.75a.75.75 0 1 0-1.5 0v1.5c0 .415.335.75.75.75Zm1.463 3.652c0-.807-.656-1.463-1.463-1.463s-1.463.656-1.463 1.463a1.464 1.464 0 0 0 2.926 0Zm1.5 0a2.966 2.966 0 0 1-2.963 2.962A2.966 2.966 0 0 1 9.27 6.652a2.966 2.966 0 0 1 2.964-2.963 2.966 2.966 0 0 1 2.963 2.963Zm.269 13.107.242 2.741h4.048l-.685-2.741h-3.605Zm-6.586 0H5.396L4.71 22.5h3.926l.243-2.741Zm.374-4.243H6.456l-.685 2.743h3.24l.243-2.743ZM14.2 22.5l-.241-2.741h-3.575l-.242 2.741H14.2Zm-3.442-6.984-.241 2.743h3.31l-.241-2.743h-2.828Zm4.575 2.743h3.362l-.685-2.743h-2.918l.241 2.743Zm3.99-3.675 2.12 8.485a.75.75 0 0 1-.727.931H3.75a.749.749 0 0 1-.727-.931l2.12-8.484a.75.75 0 0 1 .728-.569h12.725a.75.75 0 0 1 .727.569ZM9.12 4.29a.748.748 0 0 1-.53-.22L7.53 3.01a.75.75 0 1 1 1.06-1.06l1.06 1.06a.75.75 0 0 1-.53 1.28ZM6.33 7.402h1.5a.75.75 0 1 0 0-1.5h-1.5a.75.75 0 1 0 0 1.5Zm1.2 2.892 1.06-1.06a.75.75 0 1 1 1.06 1.06l-1.06 1.06a.748.748 0 0 1-1.06 0 .75.75 0 0 1 0-1.06Zm3.953.759v1.5a.75.75 0 1 0 1.5 0v-1.5a.75.75 0 1 0-1.5 0Zm3.332-.759a.749.749 0 1 1 1.06-1.06l1.061 1.06a.75.75 0 1 1-1.06 1.06l-1.062-1.06Zm1.07-3.642c0 .415.335.75.75.75h1.5a.75.75 0 1 0 0-1.5h-1.5a.75.75 0 0 0-.75.75Zm-.01-2.583a.748.748 0 0 1-1.06 0 .75.75 0 0 1 0-1.06l1.06-1.06a.75.75 0 1 1 1.061 1.06l-1.061 1.06Z" fill="currentColor"/></svg>
